X: 18628
T: I Wish The French Would Take Them
R: reel
M: 4/4
K: Gmajor
|:DEGA B2 GB|c2 BA GE E2|DEGA B2 dB|GAAG ABGE|
DEGA B2 GB|c2 BA GE E2|DEGA B2 dB|GBAF G4:|
|:gfed efge|dcBA GE E2|Bded efge|dBAG E2 GE|
DEGA B2 GB|c2 BA GE E2|DEGA B2 dB|GBAF G4:|

